X: 40861
T: Treasures Money Can't Buy, The
R: jig
M: 6/8
K: Gminor
|:GcB GFD|FBD CDF|GcB G2A|Bcd e/d/cB|
GcB GFD|FBD CDF|CDF FDC|1 B,DF G3:|2 B,DF G2F||
|:GBd c2B|dfd cBG|GFD BFD|GFD CDF|
GBd c2B|dfd cBG|GFD BFD|1 CDF G2F:|2 CDF G3||

